X: 82
T: The High Reel
R:reel
M:C|
K:Amix
"D"a2fa "A"ecAB|cAeA fAeA|"D"a2fa "A"ecAc|"G"Bcdc BG~G2|
"D"a2fa "A"ecAB|cd ef "G"g2fg|"D"afge fdec|"G"Bcdc BG~G2:|
|: "A"(3cBA eA fAed|(3cBA af ec~A2|(3cBA eA fAec|"G"Bcdc BG~G2|
"A"(3cBA eA fAeA|(3Bcd ef "G"g2fg|"D"afge fdec|"G"Bcdc BG~G2:|


